X:1
T:Plaisir D'amour
M:3/4
L:1/2
K:F
 C/4| F3/2| G3/2| A3/2-| A z/4 A/4| B B/2| A3/4- F/4 A/2| G3/2-| G z/4 C/4|\
 D3/2| E3/2| F G/4A/4| D/2 G3/4 B/4| A3/2-| G3/2-| F3/2-| F z/4||
